X:352
T: WER WILL UNTER DIE SOLDATEN
N: F0619
O: Europa, Mitteleuropa, Deutschland
R: Soldaten - Lied
M: 3/4
L: 1/16
K: F
C2C2 | F6E2F2G2 | A3GF4
F2G2 | A3Bc4d4 | c8z4
c3BA2A2A2A2 | c3BG4z4
G3GA2A2B2B2 | d2c2
f2z2c2z2 | A2ccc4
f2c2 | cBABc4B4 | A8

